X:1
T:Title
%%score { ( 1 2 ) | ( 3 4 ) }
L:1/8
M:2/4
K:F
V:1 treble nm="Grand Piano"
V:2 treble 
V:3 bass 
V:4 bass 
V:1
 z2 z[Q:1/4=68] z/ G/ | A>B A/.GG/ | A2 FF | z/ F/.[B,EB] [CFc].[DFB] |[M:3/8] G c2 |[M:1/8] F/G/ | %6
[M:2/4] A>B A/.GG/ | [CFA]2 [DF][A,EA] | [Dd][Ec]/[F=B]/ [CEA][DE_A] |[M:3/8] [CEA]3 | %10
[M:1/8] [Ac] |[M:2/4] [GB]>[FA] [EG][DF] | [CE][EG] [GB][Bd] | [Ac][GB] A/B/[Fc] |[M:3/8] [EG]3 | %15
[M:1/8] z/ G/ |[M:2/4] A>B A/.GG/ | F-[Fc] [FB][A,FA] | z .[CA] z2 |[M:3/8] [A,CF]3 |] %20
V:2
 z2 z F | z2 z F | x4 | .E2 z2 |[M:3/8] [G,E]3 |[M:1/8] x |[M:2/4] z2 z F | x4 | x4 |[M:3/8] x3 | %10
[M:1/8] x |[M:2/4] x4 | x4 | x4 |[M:3/8] z z C/B,/ |[M:1/8] F |[M:2/4] z2 z F | .[CA]2 z2 | %18
 [DFG]F/-[B,FB]/ [CFA][B,EG] |[M:3/8] x3 |] %20
V:3
 z2 z A,/B,/ | [F,CF]>[F,DF] C/B,/F,/-[F,B,]/ | [F,CF]2 [F,A,][F,A,] | %3
 .[G,B,]>[K:treble]d[K:bass] .A,,>A |[M:3/8] C,3 |[M:1/8] [F,C]/-[F,B,C]/ | %6
[M:2/4] [F,CF]>[F,DF] C/B,/F,/-[F,B,]/ | F,E, D,C, | z A, z2 |[M:3/8] A,3 |[M:1/8] [A,,E,] | %11
[M:2/4] [C,E,]>[C,F,] [C,G,][C,A,] | [C,B,]2 [C,G,][C,E,] | z2 .A,2 |[M:3/8] G,2 z | %15
[M:1/8] A,/B,/ |[M:2/4] [F,CF]>[F,DF] C/B,/F,/-[F,B,]/ | z A, [D,F,]C, | B,,A,,/G,,/ C,C, | %19
[M:3/8] F,3 |] %20
V:4
 z2 z F, | z2 [F,F].A, | x4 | z G,,[K:treble][K:bass] z B,, |[M:3/8] x3 |[M:1/8] A,/ z/ | %6
[M:2/4] z2 [F,F].A, | x4 | [=B,,A,]C,/D,/ E,E, |[M:3/8] x3 |[M:1/8] x |[M:2/4] x4 | x4 | %13
 [D,F,][E,G,] [F,F]/-[F,G,F]/[A,,F,] |[M:3/8] C,3 |[M:1/8] F, |[M:2/4] z2 [F,F].A, | _E,2 z2 | x4 | %19
[M:3/8] x3 |] %20

